images/icons/telegram-icon.svg

<svg width="64" height="64" viewBox="0 0 64 64" fill="none" xmlns="http://www.w3.org/2000/svg">
<circle cx="32" cy="32" r="32" fill="#09977C" fill-opacity="0.1"/>
<path d="M45.4965 16.9312C44.6962 16.1098 43.5117 15.8037 42.4072 16.1259L16.6527 23.6152C15.4874 23.939 14.6615 24.8683 14.439 26.0489C14.2117 27.2504 15.0056 28.7757 16.0428 29.4135L24.0957 34.3629C24.9217 34.8702 25.9877 34.743 26.6712 34.0537L35.8926 24.7749C36.3568 24.2917 37.1251 24.2917 37.5893 24.7749C38.0535 25.242 38.0535 25.999 37.5893 26.4821L28.3519 35.7625C27.6668 36.4503 27.5388 37.5213 28.043 38.3524L32.9634 46.486C33.5396 47.4524 34.532 48 35.6205 48C35.7485 48 35.8926 48 36.0206 47.9839C37.2691 47.8228 38.2615 46.9692 38.6297 45.7612L46.2648 20.0397C46.601 18.9444 46.2968 17.7526 45.4965 16.9312Z" fill="#00F6FF"/>
</svg>

<svg width="64" height="64" fill="none" xmlns="http://www.w3.org/2000/svg"><circle cx="32" cy="32" r="32" fill="#09977C" fill-opacity=".1"/><path d="M45.496 16.931a3.093 3.093 0 0 0-3.089-.805l-25.754 7.49c-1.166.323-1.991 1.252-2.214 2.433-.227 1.201.567 2.727 1.604 3.364l8.053 4.95c.826.507 1.892.38 2.575-.31l9.222-9.278a1.174 1.174 0 0 1 1.696 0 1.22 1.22 0 0 1 0 1.707l-9.237 9.28a2.118 2.118 0 0 0-.309 2.59l4.92 8.134A3.056 3.056 0 0 0 35.62 48c.129 0 .273 0 .4-.016 1.25-.161 2.241-1.015 2.61-2.223l7.635-25.721a3.143 3.143 0 0 0-.769-3.109Z" fill="#00F6FF"/></svg>
